Adwaita++-Light/panel/16/syspeek-40.svg

<svg height="16" width="16" xmlns="http://www.w3.org/2000/svg">
  <path d="m3 1c-2 0-2 2-2 2v10c0 2 2 2 2 2h10s2 0 2-2v-10c0-2-2-2-2-2zm0 2h10v10h-10zm1 5.5v3.5h8v-3.5z" fill="#444"/>
</svg>

<svg xmlns="http://www.w3.org/2000/svg" width="16" height="16" version="1.1">
 <defs>
  <style id="current-color-scheme" type="text/css">
   .ColorScheme-Text { color:#444444; } .ColorScheme-Highlight { color:#4285f4; }
  </style>
 </defs>
 <path style="fill:currentColor" class="ColorScheme-Text" d="M 3,1 C 1,1 1,3 1,3 V 13 C 1,15 3,15 3,15 H 13 C 13,15 15,15 15,13 V 3 C 15,1 13,1 13,1 Z M 3,3 H 13 V 13 H 3 Z M 4,8.5 V 12 H 12 V 8.5 Z"/>
</svg>
